Sources/FrostedUI/Resources/Icons.xcassets/tikTok16.imageset/tiktok-16.svg

<svg width="16" height="16" viewBox="0 0 16 16" fill="none" xmlns="http://www.w3.org/2000/svg" data-fui-icon="true">
  <path
    d="M11.1279 1.59473L11.1562 1.80176L11.1846 1.94434C11.3477 2.64795 11.7882 3.24736 12.3857 3.62012C12.8127 3.88647 13.3062 4.02713 13.8096 4.02637L14.3105 4.02539V7.30859H13.8105C12.8465 7.30859 11.935 7.07945 11.1279 6.67383V10.4482C11.1278 13.0541 9.01476 15.1659 6.4082 15.166C5.43647 15.166 4.53158 14.8723 3.78027 14.3682C2.51979 13.5222 1.68756 12.0821 1.6875 10.4482C1.68768 7.84246 3.80143 5.73042 6.4082 5.73047C6.62451 5.73038 6.84058 5.7442 7.05469 5.77344L7.4873 5.83301V9.28516L6.83594 9.0791C6.69938 9.03579 6.5534 9.01174 6.40137 9.01172C5.61114 9.01172 4.97092 9.65235 4.9707 10.4414C4.9707 10.9986 5.28974 11.4826 5.75781 11.7188C5.95085 11.816 6.16911 11.8711 6.40137 11.8711C7.18934 11.871 7.8283 11.2342 7.83203 10.4482V0.833008H11.1279V1.59473ZM8.83203 10.4502C8.8272 11.7879 7.74066 12.871 6.40137 12.8711C6.00893 12.8711 5.63693 12.7773 5.30762 12.6113C4.51593 12.2119 3.9707 11.3909 3.9707 10.4414C3.97092 9.09963 5.05929 8.01172 6.40137 8.01172C6.43013 8.01172 6.45876 8.01365 6.4873 8.01465V6.73242L6.4082 6.73047C4.3532 6.73043 2.68768 8.39527 2.6875 10.4482C2.68756 11.7346 3.34119 12.8698 4.33691 13.5381C4.92848 13.9351 5.64075 14.166 6.4082 14.166C8.46294 14.1659 10.1278 12.5014 10.1279 10.4482V4.81934L10.9189 5.38379C11.6065 5.87483 12.424 6.19399 13.3105 6.28223V4.99219C12.7962 4.92242 12.3001 4.74548 11.8564 4.46875C10.9851 3.92525 10.3556 3.02778 10.1709 1.97559L10.1523 1.83301H8.83203V10.4502Z"
    fill="currentColor"
  />
</svg>

<svg xmlns="http://www.w3.org/2000/svg" width="16" height="16" fill="none" data-fui-icon="true" viewBox="0 0 16 16"><path fill="currentColor" d="m11.128 1.595.028.207.029.142a2.7 2.7 0 0 0 2.625 2.082h.5v3.283h-.5c-.963 0-1.875-.23-2.682-.635v3.774a4.719 4.719 0 0 1-7.348 3.92 4.72 4.72 0 0 1 3.274-8.595l.433.06v3.452l-.651-.206a1.43 1.43 0 1 0 .996 1.37V.832h3.296zM8.832 10.45a2.43 2.43 0 1 1-2.43-2.438l.085.003V6.732l-.079-.002a3.72 3.72 0 0 0-2.071 6.808 3.7 3.7 0 0 0 2.071.628 3.72 3.72 0 0 0 3.72-3.718V4.82l.79.565a4.95 4.95 0 0 0 2.393.898v-1.29a3.696 3.696 0 0 1-3.14-3.017l-.019-.142h-1.32z"/></svg>
